docs/icons/telegram.svg

<svg width="20" height="20" viewBox="0 0 20 20" fill="none" xmlns="http://www.w3.org/2000/svg">
<g clip-path="url(#clip0_202_424)">
<path d="M4.7052 11.2567L7.18781 17.4632L10.4202 14.2307L15.9489 18.6253L19.9609 1.38672L-0.0390625 9.4133L4.7052 11.2567ZM3.14529 9.39575L12.6784 5.56976L5.09735 10.1543L3.14529 9.39575ZM14.3771 5.90942L8.04978 11.698L7.28867 14.5662L5.88104 11.0472L14.3771 5.90942ZM8.52356 14.4731L8.90701 13.028L9.4986 13.4981L8.52356 14.4731ZM15.2289 16.5588L9.47159 11.9826L18.1397 4.05258L15.2289 16.5588Z" fill="white"/>
</g>
<defs>
<clipPath id="clip0_202_424">
<rect width="20" height="19.9609" fill="white"/>
</clipPath>
</defs>
</svg>

<svg width="20" height="20" fill="none" xmlns="http://www.w3.org/2000/svg"><g clip-path="url(#clip0_202_424)"><path d="M4.705 11.257l2.483 6.206 3.232-3.232 5.529 4.394L19.96 1.387l-20 8.026 4.744 1.844zm-1.56-1.861l9.533-3.826-7.58 4.584-1.953-.758zm11.232-3.487L8.05 11.698l-.761 2.868-1.408-3.519 8.496-5.138zm-5.853 8.564l.383-1.445.592.47-.975.975zm6.705 2.086l-5.757-4.576 8.668-7.93-2.911 12.506z" fill="#fff"/></g><defs><clipPath id="clip0_202_424"><path fill="#fff" d="M0 0h20v19.961H0z"/></clipPath></defs></svg>
